src/assets/img/icon-florence.svg

<?xml version="1.0" encoding="UTF-8"?>
<svg width="64px" height="64px" viewBox="0 0 64 64" version="1.1" xmlns="http://www.w3.org/2000/svg" xmlns:xlink="http://www.w3.org/1999/xlink">
    <!-- Generator: Sketch 47.1 (45422) - http://www.bohemiancoding.com/sketch -->
    <title>icon-florence</title>
    <desc>Created with Sketch.</desc>
    <defs></defs>
    <g id="Page-1" stroke="none" stroke-width="1" fill="none" fill-rule="evenodd">
        <g id="icon-florence" stroke="#000000" stroke-width="2">
            <path d="M0.827375,36.8082131 L0.827375,22.77375 C0.827375,22.2010273 1.20920787,21.699678 1.76173016,21.5470395 L21.7865748,16.0089788 L22.3825,15.8441701 L22.3825,10.258 C22.3825,9.77556104 22.6552265,9.33432753 23.0864125,9.11869636 L31.4302404,4.94671991 C31.7881888,4.76782199 32.2115612,4.76782199 32.5696378,4.94678401 L40.9133933,9.11859927 C41.3445235,9.33420253 41.61725,9.77543604 41.61725,10.257875 L41.61725,15.8440413 L62.2377957,21.5469776 L62.2380198,21.5470395 C62.7905966,21.6996931 63.1725487,22.2011117 63.172625,22.7738582 L63.172625,36.8083381 L56.45375,34.9333219 L56.45375,31.11775 C56.45375,27.2181436 53.2828564,24.04725 49.38325,24.04725 C45.5272596,24.04725 42.3837076,27.1477564 42.3139344,30.9873018 L39.0705,30.0821922 L39.0705,26.94575 C39.0705,23.0461436 35.8996064,19.87525 32,19.87525 C28.1004343,19.87525 24.9295,23.046228 24.9295,26.94575 L24.9295,30.0821922 L21.6860656,30.9873018 C21.6162948,27.1476754 18.4727815,24.04725 14.61675,24.04725 C10.7171843,24.04725 7.54625,27.218228 7.54625,31.11775 L7.54625,34.9331969 L0.827375,36.8082131 Z M31.9998749,34.1272908 C35.9970157,35.2426851 39.4457552,36.2050565 46.0335331,38.0433805 C46.0336581,38.0434153 46.0336581,38.0434153 46.033783,38.0434502 C52.7626672,39.9211478 57.4628223,41.2327155 63.172875,42.8260672 L63.172875,54.629875 C63.172875,55.5837614 62.1581553,56.1988442 61.309324,55.7584237 C58.1743556,54.1255865 54.4195457,54.419287 51.5216988,56.5228495 C47.2630908,59.6155176 41.7745663,59.6187765 37.5090075,56.5228178 C34.1688549,54.0970567 29.8313951,54.0970567 26.4910536,56.5229549 C22.2290132,59.6162296 16.7392447,59.6162296 12.4771279,56.5228144 C9.84607288,54.6115955 6.49212389,54.1857837 3.52476253,55.3749309 L3.29450895,55.4672032 L3.15505552,55.6723462 C2.45492853,56.7022681 0.827375,56.2060531 0.827375,54.957125 C0.827375,51.5613676 0.827375,51.5613676 0.827375,48.5785482 C0.827375,45.7921781 0.827375,45.6120243 0.827375,42.8260611 C5.83595517,41.4283975 17.9024641,38.0611511 18.0384526,38.0232028 C18.0390623,38.0230327 18.0390623,38.0230327 18.039672,38.0228625 C23.1314713,36.6019685 27.3508471,35.4245554 31.9998719,34.12729 L31.9998749,34.1272908 Z M50.0248358,54.4616254 C50.2946447,54.2657481 50.5872887,54.0777869 50.969657,53.85013 L51.6706464,53.4327705 L51.2504252,52.7334929 C48.4823105,48.127156 40.5216776,44.907 31.999875,44.907 C23.4780513,44.907 15.5168986,48.1274187 12.7492942,52.7336688 L12.3290802,53.43305 L13.0302168,53.8503287 C12.911501,53.7796755 14.2614469,54.6466762 14.8347438,54.9626625 C18.1633228,56.7972885 21.5176782,56.9854087 24.9930572,54.4615554 C29.2560564,51.3676378 34.7434552,51.3672758 39.0070011,54.4616885 C42.3471451,56.8874433 46.6846049,56.8874433 50.0249464,54.4615451 L50.0248358,54.4616254 Z" id="Shape"></path>
        </g>
    </g>
</svg>

<svg id="icon-florence" width="64" height="64" xmlns="http://www.w3.org/2000/svg">
  <path d="M.827 36.808V22.774c0-.573.382-1.074.935-1.227l20.025-5.538.596-.168v-5.586c0-.482.272-.924.703-1.14l8.344-4.17c.358-.18.782-.18 1.14 0l8.343 4.17c.432.216.704.657.704 1.14v5.586l20.62 5.703c.554.153.936.654.936 1.227v14.034l-6.72-1.875v-3.814c0-3.9-3.17-7.07-7.07-7.07-3.856 0-7 3.1-7.07 6.94l-3.242-.906v-3.135c0-3.9-3.17-7.07-7.07-7.07-3.9 0-7.07 3.17-7.07 7.07v3.136l-3.242.907c-.07-3.84-3.213-6.94-7.07-6.94-3.9 0-7.07 3.17-7.07 7.07v3.816l-6.72 1.875zM32 34.128l14.034 3.915 17.14 4.783V54.63c0 .954-1.016 1.57-1.865 1.128-3.138-1.632-6.89-1.34-9.79.765-4.26 3.093-9.747 3.096-14.013 0-3.34-2.426-7.68-2.426-11.02 0-4.26 3.093-9.75 3.093-14.013 0-2.63-1.91-5.985-2.337-8.952-1.148l-.23.092-.14.205c-.7 1.03-2.328.534-2.328-.715v-12.13l17.21-4.804h.003L32 34.127zM50.025 54.46c.27-.196.562-.384.945-.612l.7-.417-.42-.7c-2.768-4.604-10.728-7.824-19.25-7.824s-16.483 3.22-19.25 7.827l-.42.7.7.416c-.118-.07 1.23.796 1.805 1.112 3.328 1.835 6.683 2.023 10.158-.5 4.263-3.094 9.75-3.095 14.014 0 3.34 2.425 7.678 2.425 11.018 0z" stroke="#000" stroke-width="2" fill="none"/>
</svg>
